X:1
T:Title
%%score { 1 | 2 }
L:1/8
M:2/4
K:G
V:1 treble nm="Grand Piano"
V:2 bass 
V:1
 z2 z[Q:1/4=92] D | DG G>A | B B2 B | Bd G>A | B3 B | [GB][FA] [FA][FA] | AG GG | GF FG | [FA]3 D | %9
 DG G>A | B B2 B | Bd G>A | B3 B | [Bd][Ac] [GB][FA] | [GB][DG] [EG]E | DG G>F | [B,DG]4 | DB B>A | %18
 G4 | E[EG] [EG]>[CE] | [B,D]3 D | DG G>A | B B2 B | [Bd]B BG | [FA]4 | DB B>A | G4 | %27
 E[EG] [EG]>[CE] | [B,D]3 D | DG G>A |[M:9/16] Bd/-d/[Ge]-[Ge]/[Ge] | %31
[M:2/4] [Gd][DGB] [CFA]>[DFB] |[M:3/8] [B,G]3 |] %33
V:2
 z2 z [G,B,] | [G,B,][G,B,D] [G,B,D]>[G,CD] | [G,DG] [G,DG]2 [G,DG] | %3
 [G,DG][G,B,G] [G,B,D]>[G,CD] | [G,DG]3 [G,DG] | [D,D][D,C] [D,C][D,C] | %6
 [D,CD][D,B,D] [D,B,D][D,B,D] | [D,B,D][D,A,D] [D,A,D][D,B,D] | [D,D]3 [D,C] | %9
 [G,B,][K:treble][G,B,D] [G,B,D]>[G,CD] | [G,DG] [G,DG]2 [G,DG] | [G,DG][G,B,G] [G,B,D]>[G,CD] | %12
 [G,DG]3 [G,DG] | [D,D][D,D] [D,D][D,D] | [G,D][G,B,] [C,C][C,G,C] | %15
 [D,G,B,][D,B,D] [D,B,D]>[D,A,D] | G,,4 | [G,B,][K:treble][G,DG] [G,DG]>[K:bass][G,CD] | [G,B,D]4 | %19
 [C,C][C,C] [C,C]>[C,G,] | [G,,G,]3 [G,B,] | [G,B,][K:treble][G,B,D] [G,B,D]>[G,CD] | %22
 [G,DG] [G,DG]2 [G,DG] | [G,D][G,DG] [G,DG][K:bass][G,B,D] | [D,D]4 | %25
 [G,B,][K:treble][G,DG] [G,DG]>[K:bass][G,CD] | [G,B,D]4 | [C,C][C,C] [C,C]>[C,G,] | %28
 [G,,G,]3 [G,B,] | [G,B,][K:treble][G,B,D] [G,B,D]>[G,CD] | %30
[M:9/16] [G,DG][G,B,G]/-[G,B,G]/[K:bass][C,C]-[C,C]/[C,C] |[M:2/4] [D,B,]D, D,>D, |[M:3/8] G,,3 |] %33

